public/tools-icons/figma.svg

<svg xmlns="http://www.w3.org/2000/svg" width="24" height="24" fill="none"><g clip-path="url(#clip0_140_98)"><path fill="#26265a" d="M15.852 8.981H11.264V0H15.852C18.328 0 20.342 2.014 20.342 4.49C20.342 6.966 18.328 8.981 15.852 8.981ZM12.735 7.51H15.852C17.517 7.51 18.871 6.155 18.871 4.491C18.871 2.827 17.516 1.472 15.852 1.472H12.735V7.51ZM12.735 8.981H8.14798C5.67198 8.981 3.65798 6.967 3.65798 4.491C3.65798 2.015 5.67198 0 8.14798 0H12.736V8.981H12.735ZM8.14798 1.471C6.48298 1.471 5.12898 2.826 5.12898 4.49C5.12898 6.154 6.48298 7.51 8.14798 7.51H11.265V1.471H8.14798ZM12.735 16.49H8.14798C5.67198 16.49 3.65798 14.476 3.65798 12C3.65798 9.524 5.67198 7.51 8.14798 7.51H12.736V16.49H12.735ZM8.14798 8.981C6.48298 8.981 5.12898 10.336 5.12898 12C5.12898 13.664 6.48398 15.019 8.14798 15.019H11.265V8.981H8.14798ZM8.17198 24C5.68298 24 3.65698 21.986 3.65698 19.51C3.65698 17.034 5.67098 15.02 8.14698 15.02H12.735V19.461C12.735 21.964 10.688 24 8.17198 24ZM8.14798 16.49C7.34762 16.4911 6.58034 16.8095 6.0144 17.3754C5.44845 17.9414 5.13004 18.7086 5.12898 19.509C5.12898 21.174 6.49398 22.528 8.17298 22.528C9.87798 22.528 11.266 21.152 11.266 19.46V16.49H8.14798ZM15.852 16.49H15.754C13.278 16.49 11.264 14.476 11.264 12C11.264 9.524 13.278 7.51 15.754 7.51H15.852C18.328 7.51 20.342 9.524 20.342 12C20.342 14.476 18.328 16.49 15.852 16.49ZM15.755 8.981C14.09 8.981 12.736 10.336 12.736 12C12.736 13.664 14.091 15.019 15.755 15.019H15.853C17.518 15.019 18.872 13.664 18.872 12C18.872 10.336 17.516 8.981 15.852 8.981H15.755Z"/></g><defs><clipPath id="clip0_140_98"><path fill="#fff" d="M0 0H24V24H0z"/></clipPath></defs></svg>

<svg xmlns="http://www.w3.org/2000/svg" width="24" height="24" fill="none" viewBox="0 0 24 24"><g clip-path="url(#a)"><path fill="#26265a" d="M15.852 8.981h-4.588V0h4.588a4.495 4.495 0 0 1 4.49 4.49 4.496 4.496 0 0 1-4.49 4.491M12.735 7.51h3.117a3.023 3.023 0 0 0 3.019-3.019 3.023 3.023 0 0 0-3.019-3.019h-3.117zm0 1.471H8.148a4.495 4.495 0 0 1-4.49-4.49A4.496 4.496 0 0 1 8.148 0h4.588v8.981zm-4.587-7.51A3.023 3.023 0 0 0 5.129 4.49a3.024 3.024 0 0 0 3.019 3.02h3.117V1.471zm4.587 15.019H8.148A4.495 4.495 0 0 1 3.658 12a4.495 4.495 0 0 1 4.49-4.49h4.588v8.98zM8.148 8.981A3.023 3.023 0 0 0 5.129 12a3.023 3.023 0 0 0 3.019 3.019h3.117V8.981zM8.172 24c-2.489 0-4.515-2.014-4.515-4.49a4.495 4.495 0 0 1 4.49-4.49h4.588v4.441c0 2.503-2.047 4.539-4.563 4.539m-.024-7.51a3.023 3.023 0 0 0-3.019 3.019c0 1.665 1.365 3.019 3.044 3.019 1.705 0 3.093-1.376 3.093-3.068v-2.97zm7.704 0h-.098a4.495 4.495 0 0 1-4.49-4.49 4.495 4.495 0 0 1 4.49-4.49h.098a4.495 4.495 0 0 1 4.49 4.49 4.495 4.495 0 0 1-4.49 4.49m-.097-7.509A3.023 3.023 0 0 0 12.736 12a3.023 3.023 0 0 0 3.019 3.019h.098A3.023 3.023 0 0 0 18.872 12a3.024 3.024 0 0 0-3.02-3.019z"/></g><defs><clipPath id="a"><path fill="#fff" d="M0 0h24v24H0z"/></clipPath></defs></svg>
